assets/img/braze_icons/channel-mobile-push.svg

<svg fill="none" height="24" viewBox="0 0 24 24" width="24" xmlns="http://www.w3.org/2000/svg"><g fill="#801ed7"><path d="m21.1213 1.87868c1.1716 1.17157 1.1716 3.07107 0 4.24264s-3.071 1.17157-4.2426 0-1.1716-3.07107 0-4.24264c1.1716-1.171573 3.071-1.171573 4.2426 0z"/><path clip-rule="evenodd" d="m20 10.8572c0-.6385 0-.95781-.0847-1.15025-.0961-.21846-.1511-.28503-.3476-.42053-.173-.11936-.6197-.20494-1.5131-.3761-.949-.18182-1.8554-.64008-2.5901-1.37478-.9796-.97953-1.4677-2.26435-1.4645-3.54817.0037-1.48356.0056-2.22533-.1032-2.43979-.1359-.26783-.1696-.3017-.4371-.43824-.2142-.10934-.6979-.10934-1.6651-.10934h-3.63314c-.52712-.000015-.98193-.000029-1.35648.03057-.39535.0323-.78857.10362-1.16695.29641-.56448.28762-1.02343.74657-1.31105 1.31105-.19279.37838-.26411.7716-.29641 1.16695-.0306.37455-.03059.82929-.03057 1.35641v13.67711c-.00002.5272-.00003.982.03057 1.3565.0323.3954.10362.7886.29641 1.167.28762.5645.74657 1.0234 1.31105 1.311.37838.1928.7716.2641 1.16695.2964.37456.0306.82932.0306 1.35646.0306h7.67716c.5271 0 .9819 0 1.3564-.0306.3954-.0323.7886-.1036 1.167-.2964.5645-.2876 1.0234-.7465 1.311-1.311.1928-.3784.2641-.7716.2964-1.167.0306-.3745.0306-.8292.0306-1.3563zm-9.5 6.6428c0-.8284.6716-1.5 1.5-1.5s1.5.6716 1.5 1.5-.6716 1.5-1.5 1.5-1.5-.6716-1.5-1.5z" fill-rule="evenodd"/></g></svg>

<svg width="24" height="24" viewBox="0 0 24 24" fill="none" xmlns="http://www.w3.org/2000/svg">
<path d="M21.1213 1.87868C22.2929 3.05025 22.2929 4.94975 21.1213 6.12132C19.9497 7.29289 18.0503 7.29289 16.8787 6.12132C15.7071 4.94975 15.7071 3.05025 16.8787 1.87868C18.0503 0.707107 19.9497 0.707107 21.1213 1.87868Z" fill="#801ED7"/>
<path fill-rule="evenodd" clip-rule="evenodd" d="M20 10.8572C20 10.2187 20 9.89939 19.9153 9.70695C19.8192 9.48849 19.7642 9.42192 19.5677 9.28642C19.3947 9.16706 18.948 9.08148 18.0546 8.91032C17.1056 8.7285 16.1992 8.27024 15.4645 7.53554C14.4849 6.55601 13.9968 5.27119 14 3.98737C14.0037 2.50381 14.0056 1.76204 13.8968 1.54758C13.7609 1.27975 13.7272 1.24588 13.4597 1.10934C13.2455 1 12.7618 1 11.7946 1H8.16146C7.63434 0.999985 7.17953 0.999971 6.80498 1.03057C6.40963 1.06287 6.01641 1.13419 5.63803 1.32698C5.07355 1.6146 4.6146 2.07355 4.32698 2.63803C4.13419 3.01641 4.06287 3.40963 4.03057 3.80498C3.99997 4.17953 3.99998 4.63427 4 5.16139V18.8385C3.99998 19.3657 3.99997 19.8205 4.03057 20.195C4.06287 20.5904 4.13419 20.9836 4.32698 21.362C4.6146 21.9265 5.07355 22.3854 5.63803 22.673C6.01641 22.8658 6.40963 22.9371 6.80498 22.9694C7.17954 23 7.6343 23 8.16144 23H15.8386C16.3657 23 16.8205 23 17.195 22.9694C17.5904 22.9371 17.9836 22.8658 18.362 22.673C18.9265 22.3854 19.3854 21.9265 19.673 21.362C19.8658 20.9836 19.9371 20.5904 19.9694 20.195C20 19.8205 20 19.3658 20 18.8387V10.8572ZM10.5 17.5C10.5 16.6716 11.1716 16 12 16C12.8284 16 13.5 16.6716 13.5 17.5C13.5 18.3284 12.8284 19 12 19C11.1716 19 10.5 18.3284 10.5 17.5Z" fill="#801ED7"/>
</svg>
